X:272
T:Rolling in the Ryegrass 2 (reel) 
T:The Shannon Breeze
B:CRE2.208ii (Ag Ionfairt sa tSeagal)
F:file ID: cre.2/272roll_rg2
M:C
R:reel
Q:180
K:D
ABAG FAAF|G2Bc dGBG|A2AG FAFA|GFGF E2D2|
ABAG FAFA|G2Bc dGBG|A2AG FAFA|GFGF E2D2||
(3ABc de f3f|g2 (3fgf edBB|(3ABc de f2fg|afge e2d2|
(3ABc de f2f2|afgf edcB|Adde fefg|afgf e2d2||

%%%

